X:1
T:James Gibb editions
T:O Domine Jesu Christe - des Prez
T:#
%%score [ 1 2 3 4 ]
L:1/8
Q:1/4=108
M:2/2
K:C
V:1 treble-8 nm="Tenor I" snm="T I"
V:2 treble-8 nm="Tenor II" snm="T II"
V:3 treble-8 nm="Tenor III" snm="T III"
V:4 bass nm="Bass" snm="B"
V:1
"^O Domine Jesu Christe""^Josquin des Prez\n(c.1450-1521)" (d8- | d8 | f8- | f8) | e8- | e4 e4 | %6
w: O||||Do\-|* mi-|
 e8 | f8 | e4 (f4- |[M:2/2][K:treble-8] f4 e2 d2) | e8- | e8 | z8 | c8 | (e4 f4) | g8 | a8- | a8 | %18
w: ne|Je-|su Chri\-||ste,|||a-|do\- *|ro|te||
 a8 | z4 d4- | d4 ^c4 | d4 e4 | f8 | e8- | e8 | a8 | a4 a4- | a4 a4 | g8- | g4 g4 | g8 | f8 | %32
w: |in|* cru-|ce pen-|den-|tem,||et|co- ro\-|* nam|spi\-|* ne-|am|in|
 f4 e4 | d4 ^c4 | d8- | d8 | c8- | c8 | z8 | e8- | e4 e4 | c8 | A8 | A4 d4- | d4 d4 | c8 | c4 f4- | %47
w: ca- pi-|te por-|tan\-||tem:|||de\-|* pre-|cor|te,|ut i\-|* psa|crux|li- be\-|
 f4 f4 |[Q:1/4=120][Q:1/4=120][Q:1/4=120][Q:1/4=120] e8 | e4 a4- | a8 | g4 f4- | f4 e4- | e4 d4 | %54
w: * ret|me|ab an\-||ge- lo|* poe\-|* ni-|
 (e4 d4 | e8) | d8- | d8 |] %58
w: ten\- *||te.||
V:2
 (D8- | D8 | A8- | A8) | c8- | c4 c4 | c8 | (A6 B2) | (c4 A4) |[M:2/2][K:treble-8] (d8 | c6 B2 | %11
w: O||||Do\-|* mi-|ne|Je\- *|su *|Chri\-||
 A4 G2 F2) | E8 | e8 | (c4 A4) | B8 | A8 | d4 ^c4 | d4 e4 | (f8 | e8 | d4 c4 | A6 B2 | c4 B2 A2 | %24
w: |ste,|a-|do\- *|ro|te|in cru-|ce pen-|den\-|||||
 G8) | F4 A4- | A4 A4 | A4 A4 | B8- | B4 c4 | c8 | z4 F4 | D4 E4 | F4 E4 | (G4 F4 | D8 | E8) | %37
w: |tem, et|* co-|ro- nam|spi\-|* ne-|am|in|ca- pi-|te por-|tan\- *|||
 A8- | A8 | G8- | G4 G4 | (A6 B2) | c8 | F8 | F4 G4 | A8 | z4 A4 | A4 B4 | c8 | z4 c4 | c4 d4 | %51
w: tem:||de\-|* pre-|cor *|te,|ut|i- psa|crux|li-|be- ret|me|ab|an- ge-|
 e4 A4 | B4 (c4- | c4 d4 | ^c4 d4- | d2 ^cB c4) | d8- | d8 |] %58
w: lo poe-|ni- ten\-||||te.||
V:3
 (A8- | A8 | F8- | F8) | G8- | G4 G4 | G8 | F8 | (G4 F4) |[M:2/2][K:treble-8] (D8 | A8- | A4 B4) | %12
w: O||||Do\-|* mi-|ne|Je-|su *|Chri\-|||
 c8 | A8 | (c4 d4) | e8 | (c4 d4 | A8- | A8) | A8 | A4 A4 | (_B4 A4) | (F8 | G8) | c8 | c8 | %26
w: ste,|a-|do\- *|ro|te *|||in|cru- ce|pen\- *|den\-||tem,|et|
 c4 d4- | d4 d4 | e8 | e4 e4 | e8 | A8 | A4 A4 | A8 | (D6 E2) | (F4 G4 | A6 G2 | E4 F4) | (C4 F4) | %39
w: co- ro\-|* nam|spi\-|* ne-|am|in|ca- pi-|te|por\- *|tan\- *|||tem: *|
 z4 E4- | E4 E4 | E8 | F8 | F4 D4 | D8 | E8 | E4 F4- | F4 F4 | G8 | G4 A4- | A4 A4 | (B2 c2) d4- | %52
w: de\-|* pre-|cor|te,|ut i-|psa|crux|li- be\-|* ret|me|ab an\-|* ge-|lo * poe\-|
 d4 G4 | A4 D4 | A4 G4 | A8 | A8- | A8 |] %58
w: * ni-|ten- te,|poe- ni-|ten-|te.||
V:4
 D,8- | D,8 | D,8 | D,8 | C,8- | C,4 C,4 | C,8 | D,8 | (C,4 D,4) |[M:2/2] _B,,8 | A,,8- | A,,8 | %12
w: O||||Do\-|* mi-|ne|Je-|su *|Chri-|ste,||
 A,,8 | A,8 | (A,4 F,4) | E,8 | A,,4 D,4- | D,4 A,,4 | D,4 ^C,4 | D,8 | A,,8 | z4 A,,4 | D,8 | %23
w: |a-|do\- *|ro|te in|* cru-|ce pen-|den-|tem,|pen-|den-|
 C,8- | C,8 | F,8 | F,4 D,4- | D,4 F,4 | E,8 | (E,4 C,4) | C,8 | D,8 | D,4 ^C,4 | D,4 A,,4 | %34
w: tem,||et|co- ro\-|* nam|spi-|ne\- *|am|in|ca- pi-|te por-|
 _B,,8- | B,,8 | (A,,8- | A,,4 F,,4- | F,,8 | C,8- | C,4 C,4 | (A,,6 G,,2) | F,,8 | F,,4 _B,,4- | %44
w: tan\-||tem:|||de\-|* pre-|cor *|te,|ut i\-|
 B,,4 _B,,4 | A,,8 | A,,4 D,4- | D,4 D,4 | C,8 | C,4 F,4- | F,4 F,4 | E,4) D,4- | D,4 C,4- | %53
w: * psa|crux|li- be\-|* ret|me|ab an\-|* ge\-|* lo|* poe\-|
 C,4 _B,,4 | (A,,4 _B,,4 | A,,8) | D,8- | D,8 |] %58
w: * ni-|ten\- *||te.||

